X: 16257
T: Greig's Pipes
R: reel
M: 4/4
K: Gmajor
|:B~B2A BAGA|B2GB AGEG|1 B~B2A BAGB|cABG AGEG:|2 Bdeg edBG|AcBG AGEG||
|:DG~G2 DGBG|DGBG AGEG|DGGF GABc|1 d2BG AGEG:|2 dBAc BG~G2||
|:d2 (3Bcd efge|dGBG AGEG|d2 (3Bcd efge|1 a~a2b ageg:|2 a~a2b aged||

